X:1
T:Title
%%score { ( 1 4 ) | ( 2 3 ) }
L:1/8
Q:1/4=100
M:4/4
K:D
V:1 treble nm="Grand Piano"
V:4 treble 
V:2 bass 
V:3 bass 
V:1
 FA [DFA]2 [DFA]2 [DFA]2 | F-[Fd] [Fd]2 [DFA]4 | [CEG]2 [Ec]2 [B,GB]2 [CEA]2 | %3
w: William~Stone * * * *|||
 [DF]A [A,FA]2 [DFA]4 | [DF][FA] [FA]2 [FA]2 [Fd]2 | z B B2 B4 | FAF-[Fd] d2 B2 | %7
w: ||||
 FA[K:bass] .[G,CE]2 [F,D]4 | F-[Fd] [Fd]2 [Gd]2 [Gc]2 | C-[CB] [CGB]2 [GB]2 [FA]2 | %10
w: |||
 F2 [FA]2 [E^G]2 .[Fd]2 | [EAc]2 [D^GB]2 [CA]4 | F-[Fd] [Fd]2 [Fd]2 [DFA]2 | %13
w: |||
 .[CEG]2 .[A,EGB]2 [DGB]2 [DFA]2 | [EAc]2 [EAc]2 [DAd]2 d2 | F2 [CE]2 [A,D]4 |] %16
w: |||
V:2
 DF D,2 D,2 D,2 | z A, [D,A,]2 D,4 | A,,2 [A,,A,]2 A,,2 A,,2 | z F D,2 D,4 | %4
 [D,A,]2 [D,D]2 [D,D]2 [D,A,]2 | B,[K:treble]D [G,DG]2 [G,DG]4 | %6
 DF[K:bass] z A,[K:treble] [G,B,G]2 [G,DG]2 | DF[K:bass] z F D,4 | z A, [D,A,]2 [E,A,]2 [E,A,]2 | %9
 z G A,,2 [D,D]2 [D,D]2 | [D,D]2 [D,D]2 [E,B,]2 z ^G | E,2 E,2 z2 G2 | z A, [D,A,]2 [D,A,]2 D,2 | %13
 z A z[K:treble] c[K:bass] D,2 D,2 | A,2 G,2 F,2[K:treble] [G,B,G]2 | %15
 [A,D]2[K:bass] [A,,G,]2 [D,F,]4 |] %16
V:3
 [D,A,]2 z2 z4 | D,2 z2 z4 | x8 | D,2 z2 z4 | x8 | G,2[K:treble] z2 z4 | %6
 D,2[K:bass] D,2[K:treble] z4 | A,2[K:bass] A,,2 z4 | D,2 z2 z4 | A,,2 z2 z4 | z4 z2 [E,B,]2 | %11
 z4 A,,4 | D,2 z2 z4 | A,,2 A,,2[K:treble][K:bass] z4 | x6[K:treble] x2 | x2[K:bass] x6 |] %16
V:4
 x8 | .[DA]2 z2 z4 | x8 | x8 | x8 | E2 z2 z4 | z2 .[DA]2 z4 | x2[K:bass] x6 | .[DA]2 z2 z4 | %9
 .[EG]2 z2 z4 | x8 | x8 | .[DA]2 z2 z4 | x8 | x8 | x8 |] %16

